icon-themes/sifr_svg/vcl/res/warningbox.svg

<svg viewBox="0 0 32 32" xmlns="http://www.w3.org/2000/svg"><path d="m16 3c-4 1.6772979-8 2.362431-12 3v12.5c0 3.5 6.482091 8.281561 12 10.5 5.517909-2.218439 12-7 12-10.5v-12.5c-4-.637569-8.000003-1.3227021-12-3zm0 4c1.104586 0 2 .9004323 2 2 0 .2617292-.009897.5222991-.029297.796875-.135907 1.921985-.716182 4.541209-1.294922 9.199219v.013672h-1.351562v-.013672c-.165471-1.331795-.331138-2.49552-.486328-3.525391-.15515-1.029315-.29964-1.922564-.423829-2.712891-.124254-.791234-.228351-1.477358-.300781-2.091796-.036236-.306948-.064569-.594572-.083984-.869141-.0194-.2745759-.029297-.5351458-.029297-.7851562 0-.1395663.014129-.2746899.041016-.40625.026641-.1309748.064632-.2566081.115234-.3769532.303613-.7221867 1.015311-1.2285156 1.84375-1.2285156zm0 13.976562c.41422 0 .799939.126796 1.119141.34375.106817.072602.204153.154639.294921.246094.361927.364019.585938.866232.585938 1.433594 0 1.1-.895414 2-2 2-.965861 0-1.771786-.68949-1.958984-1.605469-.000127.005469.000126-.001329 0-.001953-.026642-.130986-.041016-.265386-.041016-.404297 0-.555098.224636-1.057838.585938-1.421875.090768-.091455.188104-.173492.294921-.266406.319202-.196642.704921-.323438 1.119141-.323438z" fill="#555753"/></svg>

<svg xmlns="http://www.w3.org/2000/svg" viewBox="0 0 32 32">
  <path
     style="fill:#555753"
     d="M 16 3 C 12 4.6772979 8 5.362431 4 6 L 4 18.5 C 4 22 10.482091 26.781561 16 29 C 21.517909 26.781561 28 22 28 18.5 L 28 6 C 24 5.362431 19.999997 4.6772979 16 3 z M 16 7 C 17.104586 7 18 7.9004323 18 9 C 18 9.2617292 17.990103 9.5222991 17.970703 9.796875 C 17.834796 11.71886 17.254521 14.338084 16.675781 18.996094 L 16.675781 19.009766 L 15.324219 19.009766 L 15.324219 18.996094 C 15.158748 17.664299 14.993081 16.500574 14.837891 15.470703 C 14.682741 14.441388 14.538251 13.548139 14.414062 12.757812 C 14.289808 11.966578 14.185711 11.280454 14.113281 10.666016 C 14.077045 10.359068 14.048712 10.071444 14.029297 9.796875 C 14.009897 9.5222991 14 9.2617292 14 9.0117188 C 14 8.8721525 14.014129 8.7370289 14.041016 8.6054688 C 14.067657 8.474494 14.105648 8.3488607 14.15625 8.2285156 C 14.459863 7.5063289 15.171561 7 16 7 z M 16 20.976562 C 16.41422 20.976562 16.799939 21.103358 17.119141 21.320312 C 17.225958 21.392914 17.323294 21.474951 17.414062 21.566406 C 17.775989 21.930425 18 22.432638 18 23 C 18 24.1 17.104586 25 16 25 C 15.034139 25 14.228214 24.31051 14.041016 23.394531 C 14.040889 23.4 14.041142 23.393202 14.041016 23.392578 C 14.014374 23.261592 14 23.127192 14 22.988281 C 14 22.433183 14.224636 21.930443 14.585938 21.566406 C 14.676706 21.474951 14.774042 21.392914 14.880859 21.3 C 15.200061 21.103358 15.58578 20.976562 16 20.976562 z "
     />
</svg>
